icons/bladder_fill.svg

<svg width="48" height="48" viewBox="0 0 48 48" fill="none" xmlns="http://www.w3.org/2000/svg">
<path fill-rule="evenodd" clip-rule="evenodd" d="M9.75848 8.70499C9.65806 8.2292 9.19269 7.9217 8.71451 8.01733C8.23619 8.113 7.92492 8.57594 8.01542 9.05408C8.08584 9.36669 8.18626 9.68114 8.30944 10.0033C8.5211 10.5569 8.87252 11.3206 9.43973 12.203C10.299 13.5396 11.6444 15.134 13.7256 16.6779L14.2619 17.0758L14.0999 17.7237C13.8633 18.6697 13.6687 19.8586 13.6667 21.1461L13.6666 21.1667C13.6666 21.8723 13.757 22.4744 13.9169 23.0035C13.9443 23.0012 13.972 23.0001 13.9999 23.0001H33.9999C34.0279 23.0001 34.0557 23.0012 34.0831 23.0035C34.2429 22.4744 34.3334 21.8723 34.3334 21.1667C34.3334 19.8713 34.138 18.6748 33.9001 17.7236L33.7381 17.0757L34.2744 16.6779C36.3555 15.1339 37.7009 13.5396 38.5601 12.203C39.2115 11.1898 39.7579 10.1239 39.9835 9.05883C40.077 8.57901 39.7653 8.11331 39.2854 8.01733C38.8072 7.9217 38.3418 8.22919 38.2414 8.70499L38.2387 8.71755L38.235 8.73321L38.2345 8.73522C38.1942 8.90323 37.9316 9.89305 37.0647 11.2416C36.2441 12.5181 34.8707 14.1345 32.5999 15.6884L32.2221 15.947L31.7795 15.8299C29.8322 15.3149 27.2563 14.7715 24.9778 14.6406L24.9748 14.6404C24.654 14.6211 24.3289 14.6112 24 14.6112C23.6707 14.6112 23.345 14.6211 23.0238 14.6405L23.0209 14.6407C20.7426 14.7717 18.1673 15.315 16.2204 15.8299L15.7778 15.947L15.4 15.6884C13.1292 14.1345 11.7558 12.5181 10.9352 11.2416C10.4399 10.4712 10.142 9.81828 9.96997 9.36838C9.9034 9.19427 9.82179 8.97225 9.76414 8.73018L9.76115 8.71762L9.75848 8.70499ZM11.7121 8.27646C11.3787 6.73799 9.8714 5.74635 8.32228 6.05617C6.75777 6.36907 5.74315 7.89101 6.05605 9.45552L6.05819 9.46624L6.06057 9.4769C6.1574 9.91145 6.29133 10.3252 6.44133 10.7176C6.69759 11.3878 7.10923 12.2763 7.75738 13.2845C8.6643 14.6953 10.0173 16.3136 12.0117 17.8849C11.8145 18.8331 11.6686 19.946 11.6667 21.1423L11.6666 21.1667C11.6666 23.0618 12.1936 24.4894 13.0323 25.6749C13.8292 26.8014 14.8942 27.6827 15.8905 28.5071L15.9392 28.5475C17.2476 29.6304 18.5057 30.6806 19.4666 32.242C20.4139 33.7814 21.1111 35.8897 21.1111 39.1112C21.1111 40.7066 22.4045 42 24 42C25.5955 42 26.8889 40.7066 26.8889 39.1111C26.8889 35.8896 27.5861 33.7814 28.5334 32.242C29.4943 30.6806 30.7523 29.6304 32.0607 28.5475L32.1096 28.5071C33.1058 27.6827 34.1708 26.8014 34.9677 25.6749C35.8064 24.4894 36.3334 23.0618 36.3334 21.1667C36.3334 19.9611 36.1869 18.8394 35.9883 17.8848C37.9826 16.3136 39.3356 14.6952 40.2425 13.2845C40.9475 12.1878 41.6435 10.8804 41.9417 9.46567L41.9438 9.45552C42.2567 7.89102 41.2421 6.36907 39.6776 6.05617C38.1292 5.74651 36.6227 6.73698 36.2883 8.27411C36.2691 8.34861 36.0657 9.09708 35.3823 10.1601C34.7416 11.1568 33.6556 12.4678 31.8386 13.7791C29.8882 13.2834 27.383 12.7756 25.094 12.644C24.7335 12.6223 24.3686 12.6112 24 12.6112C23.6309 12.6112 23.2655 12.6223 22.9045 12.6441C20.6159 12.7758 18.1113 13.2836 16.1613 13.7792C14.3443 12.4678 13.2582 11.1568 12.6175 10.1601C12.2032 9.51556 11.9655 8.98736 11.8381 8.65411C11.7785 8.49836 11.7377 8.38108 11.7121 8.27646Z" fill="black"/>
</svg>

<svg
  xmlns="http://www.w3.org/2000/svg"
  width="24"
  height="24"
  viewBox="0 0 24 24"
  fill="none"
  stroke="currentColor"
  stroke-width="2"
  stroke-linecap="round"
  stroke-linejoin="round"
>
  <path
    fill-rule="evenodd"
    d="M9.758 8.705a.889.889 0 0 0-1.743.35c.07.312.171.626.294.948.212.554.564 1.318 1.13 2.2.86 1.337 2.205 2.931 4.287 4.475l.536.398-.162.648a14.4 14.4 0 0 0-.433 3.422v.02c0 .706.09 1.308.25 1.837L14 23h20q.042 0 .083.003c.16-.529.25-1.13.25-1.836 0-1.296-.195-2.492-.433-3.443l-.162-.648.536-.398c2.081-1.544 3.427-3.138 4.286-4.475.651-1.013 1.198-2.08 1.423-3.144a.889.889 0 0 0-1.742-.354l-.002.013-.004.015v.002c-.04.168-.303 1.158-1.17 2.507-.82 1.276-2.194 2.892-4.465 4.446l-.378.259-.443-.117c-1.947-.515-4.523-1.059-6.801-1.19h-.003a16 16 0 0 0-1.951 0h-.003c-2.278.132-4.854.675-6.8 1.19l-.443.117-.378-.259c-2.27-1.554-3.644-3.17-4.465-4.446a10.3 10.3 0 0 1-.965-1.874 5 5 0 0 1-.206-.638l-.003-.012zm1.954-.429a2.889 2.889 0 0 0-5.656 1.18l.002.01.003.01c.096.435.23.85.38 1.242.257.67.668 1.558 1.316 2.566.907 1.411 2.26 3.03 4.255 4.6a16.2 16.2 0 0 0-.345 3.258v.025c0 1.895.527 3.322 1.365 4.508.797 1.126 1.862 2.008 2.858 2.832l.05.04c1.308 1.083 2.566 2.134 3.527 3.695.947 1.54 1.644 3.648 1.644 6.87a2.889 2.889 0 0 0 5.778 0c0-3.222.697-5.33 1.644-6.87.961-1.561 2.22-2.612 3.528-3.694l.049-.04c.996-.825 2.06-1.707 2.858-2.833.838-1.186 1.365-2.613 1.365-4.508 0-1.206-.146-2.328-.345-3.282 1.995-1.571 3.348-3.19 4.255-4.6.704-1.097 1.4-2.405 1.699-3.82l.002-.01a2.889 2.889 0 0 0-5.656-1.18c-.019.074-.222.822-.906 1.885-.64.997-1.726 2.308-3.543 3.62-1.95-.497-4.456-1.004-6.745-1.136a18 18 0 0 0-2.19 0c-2.288.132-4.793.64-6.743 1.135-1.817-1.311-2.903-2.622-3.544-3.619a8.3 8.3 0 0 1-.779-1.506 3 3 0 0 1-.126-.378"
    clip-rule="evenodd"
  />
</svg>
